Newaita-dark/apps/48/texstudio.svg

<svg height="48" viewBox="0 0 48 48" width="48" xmlns="http://www.w3.org/2000/svg" xmlns:xlink="http://www.w3.org/1999/xlink"><linearGradient id="a" gradientUnits="userSpaceOnUse" x1="23.81478" x2="23.81478" y1="42.0509045" y2="44.03547050005"><stop offset="0" stop-opacity=".27451"/><stop offset="1" stop-opacity="0"/></linearGradient><linearGradient id="b"><stop offset="0" stop-opacity=".313726"/><stop offset=".222222" stop-opacity=".27451"/><stop offset="1" stop-opacity="0"/></linearGradient><radialGradient id="c" cx="450.908936" cy="189.579361" gradientTransform="matrix(.00000026 -.117199 -.210958 -.00000015 73.234568 95.392999)" gradientUnits="userSpaceOnUse" r="21.166656" xlink:href="#b"/><radialGradient id="d" cx="450.908936" cy="189.579361" gradientTransform="matrix(-.00000026 .117199 .210958 .00000015 -26.597299 -11.291218)" gradientUnits="userSpaceOnUse" r="21.166656" xlink:href="#b"/><radialGradient id="e" cx="450.908936" cy="189.579361" gradientTransform="matrix(-.00000026 -.117199 .210958 -.00000015 -26.597299 95.392999)" gradientUnits="userSpaceOnUse" r="21.166656" xlink:href="#b"/><radialGradient id="f" cx="450.908936" cy="189.579361" gradientTransform="matrix(.00000026 .117199 -.210958 .00000015 73.234565 -11.291219)" gradientUnits="userSpaceOnUse" r="21.166656" xlink:href="#b"/><linearGradient id="g" gradientUnits="userSpaceOnUse" x1="23.318674" x2="23.318674" y1="42.05096580616" y2="4.34417266504"><stop offset="0" stop-color="#616161"/><stop offset="1" stop-color="#757575"/></linearGradient><linearGradient id="h"><stop offset="0" stop-color="#ffa726"/><stop offset="1" stop-color="#ffb74d"/></linearGradient><linearGradient id="i" gradientUnits="userSpaceOnUse" x1="23.318674" x2="23.318674" xlink:href="#h" y1="42.05096580616" y2="4.34417266504"/><linearGradient id="j" gradientTransform="matrix(.0175412 .0175412 -.0175412 .0175412 31.256364 2.92199)" gradientUnits="userSpaceOnUse" x1="1157.781738" x2="614.728943" xlink:href="#h" y1="1072.898926" y2="504.996185"/><path d="m12.898438 42.050781h20.839843v1.984375h-20.839843zm0 0" fill="url(#a)"/><path d="m33.738281 42.050781h3.96875v-1.984375h-3.96875zm0 0" fill="url(#c)"/><path d="m12.898438 42.050781h-3.96875v1.984375h3.96875zm0 0" fill="url(#d)"/><path d="m12.898438 42.050781h-3.96875v-1.984375h3.96875zm0 0" fill="url(#e)"/><path d="m33.738281 42.050781h3.96875v1.984375h-3.96875zm0 0" fill="url(#f)"/><path d="m10.914062 4.34375c-1.097656 0-1.984374.886719-1.984374 1.984375v33.738281c0 1.097656.886718 1.984375 1.984374 1.984375h24.808594c1.097656 0 1.984375-.886719 1.984375-1.984375v-26.792968l-8.929687-8.929688zm19.847657 0 6.945312 6.945312v-4.960937c0-1.097656-.886719-1.984375-1.984375-1.984375zm0 0" fill="url(#g)"/><path d="m30.761719 4.34375 6.945312 6.945312v-4.960937c0-1.097656-.886719-1.984375-1.984375-1.984375zm0 0" fill="url(#i)"/><path d="m10.914062 4.34375c-1.097656 0-1.984374.886719-1.984374 1.984375v.496094c0-1.097657.886718-1.984375 1.984374-1.984375h17.863282l8.929687 8.929687v-.496093l-8.929687-8.929688zm19.847657 0 .496093.496094h4.464844c1.097656 0 1.984375.886718 1.984375 1.984375v-.496094c0-1.097656-.886719-1.984375-1.984375-1.984375zm0 0" fill="#fff" fill-opacity=".392157"/><path d="m30.761719 4.34375 6.945312 6.945312v-.734374l-6.210937-6.210938zm-21.832031 34.984375v.738281c0 1.097656.886718 1.984375 1.984374 1.984375h24.808594c1.097656 0 1.984375-.886719 1.984375-1.984375v-.738281c0 1.101563-.886719 1.988281-1.984375 1.988281h-24.808594c-1.097656 0-1.984374-.886718-1.984374-1.988281zm0 0" fill-opacity=".235294"/><path d="m10.914062 4.203125c-1.175781 0-2.125.949219-2.125 2.125v33.738281c0 1.175782.949219 2.125 2.125 2.125h24.808594c1.175782 0 2.125-.949218 2.125-2.125v-26.792968c0-.035157-.015625-.070313-.042968-.097657l-8.929688-8.929687c-.027344-.027344-.0625-.042969-.097656-.042969zm19.847657 0c-.058594 0-.109375.035156-.132813.085937-.019531.054688-.007812.113282.03125.15625l6.945313 6.945313c.042969.039063.101562.050781.15625.03125.050781-.023437.085937-.074219.085937-.132813v-4.960937c0-1.175781-.949218-2.125-2.125-2.125zm-19.847657.28125h17.804688l8.847656 8.847656v26.734375c0 1.023438-.820312 1.84375-1.84375 1.84375h-24.808594c-1.023437 0-1.84375-.820312-1.84375-1.84375v-33.738281c0-1.023437.820313-1.84375 1.84375-1.84375zm20.1875 0h4.621094c1.023438 0 1.84375.820313 1.84375 1.84375v4.621094zm0 0" fill="#212121"/><path d="m37.304688 25.757812c-.507813 0-1.011719.195313-1.402344.582032l-7.015625 7.019531-1.054688 1.050781 4.914063 4.910156 8.066406-8.066406c.777344-.777344.777344-2.03125 0-2.808594l-2.101562-2.105468c-.390626-.386719-.898438-.582032-1.40625-.582032zm-10.523438 9.707032c-.113281.113281-.203125.253906-.25.425781l-1.40625 4.914063c-.210938.746093.480469 1.4375 1.226562 1.226562l4.910157-1.40625c.171875-.046875.316406-.136719.429687-.25zm0 0" fill="url(#j)"/><path d="m37.257812 25.792969c-.507812 0-1.015624.195312-1.40625.582031l-7.015624 7.015625-1.050782 1.054687.269532.269532.78125-.78125 7.015624-7.019532c.027344-.023437.050782-.046874.074219-.070312.027344-.023438.050781-.042969.078125-.066406.039063-.03125.078125-.058594.121094-.089844.039062-.027344.082031-.054688.125-.078125.054688-.035156.113281-.066406.171875-.09375.203125-.09375.421875-.152344.644531-.175781.0625-.003906.125-.007813.191406-.007813.0625 0 .125.003907.1875.007813.222657.023437.441407.082031.644532.175781.058594.027344.117187.058594.175781.09375.039063.023437.082031.050781.121094.078125.042969.03125.082031.058594.121093.089844.027344.023437.050782.042968.078126.066406.023437.023438.050781.046875.074218.070312l2.105469 2.105469c.015625.019531.035156.039063.050781.054688.007813.007812.011719.011719.015625.019531.011719.011719.023438.027344.035157.039062.007812.007813.011718.011719.019531.019532.011719.015625.023437.03125.035156.046875.003906.003906.007813.007812.011719.011719.015625.019531.027344.039062.042968.058593.003907.003907.007813.011719.007813.015625.011719.015625.023437.03125.035156.046875.003907.007813.007813.011719.011719.019531.011719.015626.023438.035157.03125.050782.003906.003906.003906.007812.007812.011718.011719.023438.027344.042969.039063.066407.011719.023437.023437.042969.03125.066406.003906.003906.007813.007813.007813.015625.007812.015625.019531.035156.027343.050781 0 .007813.003907.011719.003907.015625.011718.023438.019531.046875.03125.070313.007812.023437.015624.046875.027343.070312v.003907c.007813.023437.015625.046874.023438.070312v.007812c.007812.023438.015625.046876.019531.070313.015625.050781.027344.101563.035156.152344v.003906c.003906.023437.007813.050781.011719.074219.082031-.59375-.105469-1.214844-.5625-1.671875l-2.105469-2.105469c-.390625-.386719-.898437-.582031-1.402344-.582031zm-10.527343 9.703125c-.113281.113281-.203125.257812-.25.429687l-1.402344 4.914063c-.054687.1875-.050781.375-.003906.542968 0 0 0-.003906.003906-.003906l1.402344-4.914062c.046875-.171875.136719-.316406.25-.429688l4.585937 4.589844c.128906-.050781.238282-.125.328125-.214844zm0 0" fill="#d7d7d7" fill-opacity=".588235" fill-rule="evenodd"/><path d="m41.382812 29.601562c-.054687.421876-.242187.832032-.570312 1.15625l-8.066406 8.066407-4.664063-4.660157-.25.246094 4.914063 4.910156 8.066406-8.066406c.453125-.453125.644531-1.066406.570312-1.652344zm-9.984374 10.480469c-.042969.019531-.085938.035157-.136719.046875l-4.910157 1.40625c-.566406.160156-1.097656-.195312-1.234374-.703125-.1875.734375.496093 1.410157 1.234374 1.199219l4.910157-1.40625c.171875-.046875.316406-.136719.429687-.25zm0 0" fill-opacity=".235294"/><g fill="none" stroke="#212121" stroke-linecap="round" stroke-linejoin="round" stroke-width="3" transform="matrix(.093759 0 0 .093759 0 20.158175)"><path d="m412.877239 65.931506c-8.290875-8.290875-21.664598-8.290875-29.955473 0l-74.826188 74.86785-11.248925 11.207263 52.411661 52.369999 86.033451-86.033451c8.290875-8.290875 8.290875-21.664597 0-29.955472zm0 0"/><path d="m285.639389 163.255545c-1.208217 1.208218-2.166459 2.708075-2.666412 4.541233l-14.998567 52.411662c-2.249785 7.957573 5.12451 15.331869 13.082084 13.082084l52.369999-14.998568c1.833158-.499952 3.374677-1.458194 4.582895-2.666412zm0 0"/></g></svg>

<?xml version="1.0" encoding="UTF-8"?>
<svg xmlns="http://www.w3.org/2000/svg" xmlns:xlink="http://www.w3.org/1999/xlink" width="48px" height="48px" viewBox="0 0 48 48" version="1.1">
<defs>
<linearGradient id="linear0" gradientUnits="userSpaceOnUse" x1="254" y1="233.5" x2="254" y2="254.666672" gradientTransform="matrix(0.093759,0,0,0.093759,-0.00000572259,20.158178)">
<stop offset="0" style="stop-color:rgb(0%,0%,0%);stop-opacity:0.27451;"/>
<stop offset="1" style="stop-color:rgb(0%,0%,0%);stop-opacity:0;"/>
</linearGradient>
<radialGradient id="radial0" gradientUnits="userSpaceOnUse" cx="450.908936" cy="189.579361" fx="450.908936" fy="189.579361" r="21.166656" gradientTransform="matrix(0.000000261256,-0.117199,-0.210958,-0.000000152308,73.234568,95.392999)">
<stop offset="0" style="stop-color:rgb(0%,0%,0%);stop-opacity:0.313726;"/>
<stop offset="0.222222" style="stop-color:rgb(0%,0%,0%);stop-opacity:0.27451;"/>
<stop offset="1" style="stop-color:rgb(0%,0%,0%);stop-opacity:0;"/>
</radialGradient>
<radialGradient id="radial1" gradientUnits="userSpaceOnUse" cx="450.908936" cy="189.579361" fx="450.908936" fy="189.579361" r="21.166656" gradientTransform="matrix(-0.000000261256,0.117199,0.210958,0.000000152308,-26.597299,-11.291218)">
<stop offset="0" style="stop-color:rgb(0%,0%,0%);stop-opacity:0.313726;"/>
<stop offset="0.222222" style="stop-color:rgb(0%,0%,0%);stop-opacity:0.27451;"/>
<stop offset="1" style="stop-color:rgb(0%,0%,0%);stop-opacity:0;"/>
</radialGradient>
<radialGradient id="radial2" gradientUnits="userSpaceOnUse" cx="450.908936" cy="189.579361" fx="450.908936" fy="189.579361" r="21.166656" gradientTransform="matrix(-0.000000261256,-0.117199,0.210958,-0.000000152308,-26.597299,95.392999)">
<stop offset="0" style="stop-color:rgb(0%,0%,0%);stop-opacity:0.313726;"/>
<stop offset="0.222222" style="stop-color:rgb(0%,0%,0%);stop-opacity:0.27451;"/>
<stop offset="1" style="stop-color:rgb(0%,0%,0%);stop-opacity:0;"/>
</radialGradient>
<radialGradient id="radial3" gradientUnits="userSpaceOnUse" cx="450.908936" cy="189.579361" fx="450.908936" fy="189.579361" r="21.166656" gradientTransform="matrix(0.000000261256,0.117199,-0.210958,0.000000152308,73.234565,-11.291219)">
<stop offset="0" style="stop-color:rgb(0%,0%,0%);stop-opacity:0.313726;"/>
<stop offset="0.222222" style="stop-color:rgb(0%,0%,0%);stop-opacity:0.27451;"/>
<stop offset="1" style="stop-color:rgb(0%,0%,0%);stop-opacity:0;"/>
</radialGradient>
<linearGradient id="linear1" gradientUnits="userSpaceOnUse" x1="940" y1="1695.118164" x2="940" y2="175.118118" gradientTransform="matrix(0.0248071,0,0,0.0248071,0,0.00000000000000282)">
<stop offset="0" style="stop-color:rgb(38.039216%,38.039216%,38.039216%);stop-opacity:1;"/>
<stop offset="1" style="stop-color:rgb(45.882353%,45.882353%,45.882353%);stop-opacity:1;"/>
</linearGradient>
<linearGradient id="linear2" gradientUnits="userSpaceOnUse" x1="940" y1="1695.118164" x2="940" y2="175.118118" gradientTransform="matrix(0.0248071,0,0,0.0248071,0,0.00000000000000282)">
<stop offset="0" style="stop-color:rgb(100%,65.490198%,14.901961%);stop-opacity:1;"/>
<stop offset="1" style="stop-color:rgb(100%,71.764708%,30.19608%);stop-opacity:1;"/>
</linearGradient>
<linearGradient id="linear3" gradientUnits="userSpaceOnUse" x1="1157.781738" y1="1072.898926" x2="614.728943" y2="504.996185" gradientTransform="matrix(0.0175412,0.0175412,-0.0175412,0.0175412,31.256364,2.92199)">
<stop offset="0" style="stop-color:rgb(100%,65.490198%,14.901961%);stop-opacity:1;"/>
<stop offset="1" style="stop-color:rgb(100%,71.764708%,30.19608%);stop-opacity:1;"/>
</linearGradient>
</defs>
<g id="surface1">
<path style=" stroke:none;fill-rule:nonzero;fill:url(#linear0);" d="M 12.898438 42.050781 L 33.738281 42.050781 L 33.738281 44.035156 L 12.898438 44.035156 Z M 12.898438 42.050781 "/>
<path style=" stroke:none;fill-rule:nonzero;fill:url(#radial0);" d="M 33.738281 42.050781 L 37.707031 42.050781 L 37.707031 40.066406 L 33.738281 40.066406 Z M 33.738281 42.050781 "/>
<path style=" stroke:none;fill-rule:nonzero;fill:url(#radial1);" d="M 12.898438 42.050781 L 8.929688 42.050781 L 8.929688 44.035156 L 12.898438 44.035156 Z M 12.898438 42.050781 "/>
<path style=" stroke:none;fill-rule:nonzero;fill:url(#radial2);" d="M 12.898438 42.050781 L 8.929688 42.050781 L 8.929688 40.066406 L 12.898438 40.066406 Z M 12.898438 42.050781 "/>
<path style=" stroke:none;fill-rule:nonzero;fill:url(#radial3);" d="M 33.738281 42.050781 L 37.707031 42.050781 L 37.707031 44.035156 L 33.738281 44.035156 Z M 33.738281 42.050781 "/>
<path style=" stroke:none;fill-rule:nonzero;fill:url(#linear1);" d="M 10.914062 4.34375 C 9.816406 4.34375 8.929688 5.230469 8.929688 6.328125 L 8.929688 40.066406 C 8.929688 41.164062 9.816406 42.050781 10.914062 42.050781 L 35.722656 42.050781 C 36.820312 42.050781 37.707031 41.164062 37.707031 40.066406 L 37.707031 13.273438 L 28.777344 4.34375 Z M 30.761719 4.34375 L 37.707031 11.289062 L 37.707031 6.328125 C 37.707031 5.230469 36.820312 4.34375 35.722656 4.34375 Z M 30.761719 4.34375 "/>
<path style=" stroke:none;fill-rule:nonzero;fill:url(#linear2);" d="M 30.761719 4.34375 L 37.707031 11.289062 L 37.707031 6.328125 C 37.707031 5.230469 36.820312 4.34375 35.722656 4.34375 Z M 30.761719 4.34375 "/>
<path style=" stroke:none;fill-rule:nonzero;fill:rgb(100%,100%,100%);fill-opacity:0.392157;" d="M 10.914062 4.34375 C 9.816406 4.34375 8.929688 5.230469 8.929688 6.328125 L 8.929688 6.824219 C 8.929688 5.726562 9.816406 4.839844 10.914062 4.839844 L 28.777344 4.839844 L 37.707031 13.769531 L 37.707031 13.273438 L 28.777344 4.34375 Z M 30.761719 4.34375 L 31.257812 4.839844 L 35.722656 4.839844 C 36.820312 4.839844 37.707031 5.726562 37.707031 6.824219 L 37.707031 6.328125 C 37.707031 5.230469 36.820312 4.34375 35.722656 4.34375 Z M 30.761719 4.34375 "/>
<path style=" stroke:none;fill-rule:nonzero;fill:rgb(0%,0%,0%);fill-opacity:0.235294;" d="M 30.761719 4.34375 L 37.707031 11.289062 L 37.707031 10.554688 L 31.496094 4.34375 Z M 8.929688 39.328125 L 8.929688 40.066406 C 8.929688 41.164062 9.816406 42.050781 10.914062 42.050781 L 35.722656 42.050781 C 36.820312 42.050781 37.707031 41.164062 37.707031 40.066406 L 37.707031 39.328125 C 37.707031 40.429688 36.820312 41.316406 35.722656 41.316406 L 10.914062 41.316406 C 9.816406 41.316406 8.929688 40.429688 8.929688 39.328125 Z M 8.929688 39.328125 "/>
<path style=" stroke:none;fill-rule:nonzero;fill:rgb(12.941177%,12.941177%,12.941177%);fill-opacity:1;" d="M 10.914062 4.203125 C 9.738281 4.203125 8.789062 5.152344 8.789062 6.328125 L 8.789062 40.066406 C 8.789062 41.242188 9.738281 42.191406 10.914062 42.191406 L 35.722656 42.191406 C 36.898438 42.191406 37.847656 41.242188 37.847656 40.066406 L 37.847656 13.273438 C 37.847656 13.238281 37.832031 13.203125 37.804688 13.175781 L 28.875 4.246094 C 28.847656 4.21875 28.8125 4.203125 28.777344 4.203125 Z M 30.761719 4.203125 C 30.703125 4.203125 30.652344 4.238281 30.628906 4.289062 C 30.609375 4.34375 30.621094 4.402344 30.660156 4.445312 L 37.605469 11.390625 C 37.648438 11.429688 37.707031 11.441406 37.761719 11.421875 C 37.8125 11.398438 37.847656 11.347656 37.847656 11.289062 L 37.847656 6.328125 C 37.847656 5.152344 36.898438 4.203125 35.722656 4.203125 Z M 10.914062 4.484375 L 28.71875 4.484375 L 37.566406 13.332031 L 37.566406 40.066406 C 37.566406 41.089844 36.746094 41.910156 35.722656 41.910156 L 10.914062 41.910156 C 9.890625 41.910156 9.070312 41.089844 9.070312 40.066406 L 9.070312 6.328125 C 9.070312 5.304688 9.890625 4.484375 10.914062 4.484375 Z M 31.101562 4.484375 L 35.722656 4.484375 C 36.746094 4.484375 37.566406 5.304688 37.566406 6.328125 L 37.566406 10.949219 Z M 31.101562 4.484375 "/>
<path style=" stroke:none;fill-rule:nonzero;fill:url(#linear3);" d="M 37.304688 25.757812 C 36.796875 25.757812 36.292969 25.953125 35.902344 26.339844 L 28.886719 33.359375 L 27.832031 34.410156 L 32.746094 39.320312 L 40.8125 31.253906 C 41.589844 30.476562 41.589844 29.222656 40.8125 28.445312 L 38.710938 26.339844 C 38.320312 25.953125 37.8125 25.757812 37.304688 25.757812 Z M 26.78125 35.464844 C 26.667969 35.578125 26.578125 35.71875 26.53125 35.890625 L 25.125 40.804688 C 24.914062 41.550781 25.605469 42.242188 26.351562 42.03125 L 31.261719 40.625 C 31.433594 40.578125 31.578125 40.488281 31.691406 40.375 Z M 26.78125 35.464844 "/>
<path style=" stroke:none;fill-rule:evenodd;fill:rgb(84.313726%,84.313726%,84.313726%);fill-opacity:0.588235;" d="M 37.257812 25.792969 C 36.75 25.792969 36.242188 25.988281 35.851562 26.375 L 28.835938 33.390625 L 27.785156 34.445312 L 28.054688 34.714844 L 28.835938 33.933594 L 35.851562 26.914062 C 35.878906 26.890625 35.902344 26.867188 35.925781 26.84375 C 35.953125 26.820312 35.976562 26.800781 36.003906 26.777344 C 36.042969 26.746094 36.082031 26.71875 36.125 26.6875 C 36.164062 26.660156 36.207031 26.632812 36.25 26.609375 C 36.304688 26.574219 36.363281 26.542969 36.421875 26.515625 C 36.625 26.421875 36.84375 26.363281 37.066406 26.339844 C 37.128906 26.335938 37.191406 26.332031 37.257812 26.332031 C 37.320312 26.332031 37.382812 26.335938 37.445312 26.339844 C 37.667969 26.363281 37.886719 26.421875 38.089844 26.515625 C 38.148438 26.542969 38.207031 26.574219 38.265625 26.609375 C 38.304688 26.632812 38.347656 26.660156 38.386719 26.6875 C 38.429688 26.71875 38.46875 26.746094 38.507812 26.777344 C 38.535156 26.800781 38.558594 26.820312 38.585938 26.84375 C 38.609375 26.867188 38.636719 26.890625 38.660156 26.914062 L 40.765625 29.019531 C 40.78125 29.039062 40.800781 29.058594 40.816406 29.074219 C 40.824219 29.082031 40.828125 29.085938 40.832031 29.09375 C 40.84375 29.105469 40.855469 29.121094 40.867188 29.132812 C 40.875 29.140625 40.878906 29.144531 40.886719 29.152344 C 40.898438 29.167969 40.910156 29.183594 40.921875 29.199219 C 40.925781 29.203125 40.929688 29.207031 40.933594 29.210938 C 40.949219 29.230469 40.960938 29.25 40.976562 29.269531 C 40.980469 29.273438 40.984375 29.28125 40.984375 29.285156 C 40.996094 29.300781 41.007812 29.316406 41.019531 29.332031 C 41.023438 29.339844 41.027344 29.34375 41.03125 29.351562 C 41.042969 29.367188 41.054688 29.386719 41.0625 29.402344 C 41.066406 29.40625 41.066406 29.410156 41.070312 29.414062 C 41.082031 29.4375 41.097656 29.457031 41.109375 29.480469 C 41.121094 29.503906 41.132812 29.523438 41.140625 29.546875 C 41.144531 29.550781 41.148438 29.554688 41.148438 29.5625 C 41.15625 29.578125 41.167969 29.597656 41.175781 29.613281 C 41.175781 29.621094 41.179688 29.625 41.179688 29.628906 C 41.191406 29.652344 41.199219 29.675781 41.210938 29.699219 C 41.21875 29.722656 41.226562 29.746094 41.238281 29.769531 C 41.238281 29.769531 41.238281 29.769531 41.238281 29.773438 C 41.246094 29.796875 41.253906 29.820312 41.261719 29.84375 C 41.261719 29.847656 41.261719 29.847656 41.261719 29.851562 C 41.269531 29.875 41.277344 29.898438 41.28125 29.921875 C 41.296875 29.972656 41.308594 30.023438 41.316406 30.074219 C 41.316406 30.074219 41.316406 30.078125 41.316406 30.078125 C 41.320312 30.101562 41.324219 30.128906 41.328125 30.152344 C 41.410156 29.558594 41.222656 28.9375 40.765625 28.480469 L 38.660156 26.375 C 38.269531 25.988281 37.761719 25.792969 37.257812 25.792969 Z M 26.730469 35.496094 C 26.617188 35.609375 26.527344 35.753906 26.480469 35.925781 L 25.078125 40.839844 C 25.023438 41.027344 25.027344 41.214844 25.074219 41.382812 C 25.074219 41.382812 25.074219 41.378906 25.078125 41.378906 L 26.480469 36.464844 C 26.527344 36.292969 26.617188 36.148438 26.730469 36.035156 L 31.316406 40.625 C 31.445312 40.574219 31.554688 40.5 31.644531 40.410156 Z M 26.730469 35.496094 "/>
<path style=" stroke:none;fill-rule:nonzero;fill:rgb(0%,0%,0%);fill-opacity:0.235294;" d="M 41.382812 29.601562 C 41.328125 30.023438 41.140625 30.433594 40.8125 30.757812 L 32.746094 38.824219 L 28.082031 34.164062 L 27.832031 34.410156 L 32.746094 39.320312 L 40.8125 31.253906 C 41.265625 30.800781 41.457031 30.1875 41.382812 29.601562 Z M 31.398438 40.082031 C 31.355469 40.101562 31.3125 40.117188 31.261719 40.128906 L 26.351562 41.535156 C 25.785156 41.695312 25.253906 41.339844 25.117188 40.832031 C 24.929688 41.566406 25.613281 42.242188 26.351562 42.03125 L 31.261719 40.625 C 31.433594 40.578125 31.578125 40.488281 31.691406 40.375 Z M 31.398438 40.082031 "/>
<path style="fill:none;stroke-width:3;stroke-linecap:round;stroke-linejoin:round;stroke:rgb(12.941177%,12.941177%,12.941177%);stroke-opacity:1;stroke-miterlimit:4;" d="M 412.877239 65.931506 C 404.586364 57.640631 391.212641 57.640631 382.921766 65.931506 L 308.095578 140.799356 L 296.846653 152.006619 L 349.258314 204.376618 L 435.291765 118.343167 C 443.58264 110.052292 443.58264 96.67857 435.291765 88.387695 Z M 412.877239 65.931506 " transform="matrix(0.093759,0,0,0.093759,0,20.158175)"/>
<path style="fill:none;stroke-width:3;stroke-linecap:round;stroke-linejoin:round;stroke:rgb(12.941177%,12.941177%,12.941177%);stroke-opacity:1;stroke-miterlimit:4;" d="M 285.639389 163.255545 C 284.431172 164.463763 283.47293 165.96362 282.972977 167.796778 L 267.97441 220.20844 C 265.724625 228.166013 273.09892 235.540309 281.056494 233.290524 L 333.426493 218.291956 C 335.259651 217.792004 336.80117 216.833762 338.009388 215.625544 Z M 285.639389 163.255545 " transform="matrix(0.093759,0,0,0.093759,0,20.158175)"/>
</g>
</svg>
